!!!!SEGMENT: pl-sa--551-a-ix-31--007_krogulski-jozef-wladyslaw--mazur.krn
!!!cenid: 18xx:506
!!!COM: Krogulski, Józef Władysław
!!!COM-rismID: pe30001797
!!!CDT: 1815/10/04-1842/01/09
!!!CNT: Polish
!!!OTL: Mazur
!!!PDT:
!!!AGN: Secular; Mazurka
!!!SMS-siglum: PL-SA
!!!SMS-shelfmark: 551/A IX 31
!!!SMS-shelfwork: 007 W
!!!SMS-variant:
!!!SMS-altvar:
!!!NIFC-rismSourceID: 1001069468
!!!NIFC-islandoraID:
!!!URL-pdf-islandora:
!!!URL-scan: https://bc.bdsandomierz.pl/dlibra/publication/1307/edition/1275/content @EN{Scan in the Sandomierz Diocese Digital Library} @PL{Skany w portalu Cyfrowa Biblioteka Diecezjalna w Sandomierzu}
!!!ONB-nifc: Str. 9 (s. 2) – str. 10 (s. 1)
!!!AIN: 1 piano
!!!key: D
**kern	**kern
*part1	*part1
*staff2	*staff1
*Ipiano	*Ipiano
*I"Piano	*I"Piano
*I'pf	*pf
*ICklav	*ICklav
*mI"Pianoforte	*mI"Pianoforte
*clefF4	*clefG2
*k[f#c#]	*k[f#c#]
*D:	*D:
*M3/8	*M3/8
=1	=1
*^	*
4D/	8D\L	16a/LL
.	.	16gg#X/JJ
!	!	!LO:N:vis=4
.	8d\ 8A\ 8F#\	8aa\
8ryy	8d\J 8A\ 8F#\	16ff#\LL
.	.	16dd\JJ
=2	=2	=2
!	!	!LO:TUP:a
4D\	8D/L	24ff#\LL
.	.	24gg#X\
.	.	24ff#\JJ
!	!	!LO:TX:t=P:problem=8\right
.	8e/ 8A/ 8G/	8ee\L
8ryy	8e/J 8A/ 8G/	16cc#\L
.	.	16a\JJ
=3	=3	=3
*rep	*	*
!	!	!LO:TUP:a
4D/	8D\L	24a\LL
.	.	24b\
.	.	24cc#\JJ
.	8d\ 8A\ 8F#\	8dd\L
8ryy	8d\J 8A\ 8F#\	8ee\J
=4	=4	=4
!	!	!LO:MO:mod=*null:null
*	*	*Xtuplet
4D\	8D/L	24ff#\LL
.	.	24aa\
.	.	24gg#X\JJ
.	8e/ 8A/ 8G/	8ee\L
8ryy	8e/J 8A/ 8G/	16cc#\L
.	.	16a\JJ
*Xrep	*	*
!!LO:LB:g=original
=5	=5	=5
!	!	!LO:TX:t=P:problem=16\right
*rep	*	*
!	!	!LO:SIC:s=(16aLL
4D/	8D\L	((16a\LL
.	.	32b\L
!	!	!LO:SIC:s=32cc#JJJ)
.	.	32cc#\JJJ))
.	8d\ 8A\ 8F#\	8dd\L
8ryy	8d\J 8A\ 8F#\	16ee\L
.	.	16ff#\JJ
=6	=6	=6
.	.	8qff#/
4D\	8D/L	16gg\LL
.	.	32aa\L
.	.	32gg\JJJ
.	8e/ 8A/ 8G/	8ee\L
8ryy	8e/J 8A/ 8G/	8aa\J
*Xrep	*	*
=7	=7	=7
*rep	*	*
4D/	8D\L	16ff#\LL
.	.	32ddd\L
.	.	32aa\JJJ
.	8d\ 8A\ 8F#\	8ff#\L
8ryy	8d\J 8A\ 8F#\	8dd\J
=8	=8	=8
!	!	!LO:TX:t=P:problem=16\right
4D\	8D/L	16ff#\LL
.	.	32gg#X\L
.	.	32ff#\JJJ
.	8e/ 8A/ 8G/	8ee\L
8ryy	8e/J 8A/ 8G/	16cc#\L
.	.	16a\JJ
*Xrep	*	*
*v	*v	*
=9:|!	=9:|!
8E/ 8EE/	16dd\LL 16b\
.	32ee\L
.	32dd\JJJ
*tremolo	*
8d\ 8B\ 8G#X\ 8E\L	8b\L
8d\ 8B\ 8G#X\ 8E\J	8dd\J
=10	=10
8A/ 8AA/	16cc#\LL
.	16ee\
8c#\ 8A\ 8E\L	16aa\ 16ee\ 16cc#\ 16a\
.	16gg#X\ 16ee\
8c#\ 8A\ 8E\J	16ff#\ 16dd\
.	16ee\JJ 16cc#\
=11	=11
*rep	*
!LO:TX:t=P:problem= rep powinno dotyczyć dwóch taktów	!
8E/ 8EE/	16dd\LL
.	32ff#\L
.	32dd\JJJ
8d\ 8B\ 8G#X\ 8E\L	8b\L
8d\ 8B\ 8G#X\ 8E\J	8g#X\J
*Xrep	*
!!LO:LB:g=original
=12	=12
*rep	*
8A/ 8AA/	16a/LL
.	32cc#/L
.	32a/JJJ
8c#\ 8A\ 8E\L	4e/
8c#\ 8A\ 8E\J	.
*Xep	*
=13	=13
*rep	*
8E/ 8EE/	16dd\LL 16b\
.	32ee\L
.	32dd\JJJ
8d\ 8B\ 8G#X\ 8E\L	8b\L
8d\ 8B\ 8G#X\ 8E\J	8dd\J
=14	=14
8A/ 8AA/	16cc#\LL
.	16ee\
8c#\ 8A\ 8E\L	16aa\ 16cc#\ 16a\
.	16gg#X\ 16ee\
8c#\ 8A\ 8E\J	16ff#\ 16dd\
.	16ee\JJ 16cc#\
*Xrep	*
=15	=15
8E/ 8EE/	16dd\LL
.	32ff#\L
.	32dd\JJJ
!LO:SIC:v:s=8d\ 8B\ 8G#\ 8E\L	!
8d\ 8B\ 8Gn\ 8E\L	8b\L
!LO:SIC:v:s=8d\ 8B\ 8G#\ 8E\L	!
8d\ 8B\ 8Gn\ 8E\J	8g#X\J
=16	=16
8c#\ 8A\	16b\LL
.	16a\JJ
4AA/	4a\
=17:|!|:	=17:|!|:
!	!LO:TX:t=P:problem=16 right
8AA/	16a\LL
.	16a\JJ
8g\ 8e\ 8c#\ 8A\L	16cc#\LL
.	16b\J
8g\ 8e\ 8c#\ 8A\J	8a\J
=18	=18
8d\ 8D\	16dd\LL
.	8qccc#/
.	16ddd\JJ
8f#\ 8d\ 8A\L	8aa\L
8f#\ 8d\ 8A\J	16ff#\L
.	16dd\JJ
=19	=19
*rep	*
!LO:TX:t=P:problem= rep powinno dotyczyć dwóch taktów	!
.	8qff#/
8AA/	24gg\LL
.	24aa\
.	24gg\JJ
8g\ 8e\ 8c#\ 8A\L	8ee\L
8g\ 8e\ 8c#\ 8A\J	8aa\J
*Xrep	*
!!LO:PB:g=original
=20	=20
*rep	*
8d\ 8D\	16ff#\LL
!	!LO:N:vis=32
.	8qgg/
.	16ff#\JJ
8f#\ 8d\ 8A\L	8dd\L
8f#\ 8d\ 8A\J	16cc#\L
.	16b\JJ
*Xrep	*
=21	=21
*rep	*
8AA/	16a\LL
.	16a\JJ
8g\ 8e\ 8c#\ 8A\L	16cc#\LL
.	16b\J
8g\ 8e\ 8c#\ 8A\J	8a\J
=22	=22
8d\ 8D\	16dd\LL
.	8qccc#/
.	16ddd\JJ
8f#\ 8d\ 8A\L	8aa\L
8f#\ 8d\ 8A\J	16ff#\L
.	16dd\JJ
*Xrep	*
=23	=23
8A/ 8AA/	8gg\L
.	8qqee/
8g\ 8e\ 8c#\ 8A\L	16gg\L
.	16bb\
8g\ 8e\ 8c#\ 8A\J	16aa\
.	16cc#\JJ
=24	=24
8f#\ 8d\	16ee\LL
.	16dd\JJ
4D/	4dd\
==	==
*-	*-
!!!system-decoration: {(s1,s2)}
!!!filter-modern: sic -sq | shed -e "s/TX(.*):t=P:/tx$1:t=P:/LG" | shed -k -e "s/LO:N:vis/LO:n:vis:/L" | shed -e "s/^(\d+[\/\\]right)/$1yy/I; s/^(\d+[\/\\]left)/$1yy/I" | shed -e "s/:rj/:RJ/L" | shed -e "s/LO:DY:(a|b|rj)/LO:dy:$1/L" | autostem -r | tie -s | shed -k -e "s/[<>]//g" | shed -e "s/^(X?)rep$/$1REP/I" | modori -m
!!!EED: Leszek Kubiak
!!!EEV: 2020-12-14
!!!ENC: Anastazja Marusiak
!!!END: 2020-06-17
!!!ENC-modern: Andrzej Borzym
!!!END-modern: 2022-07-08
